X: 3902
T: Blackberry Blossom, The
R: reel
M: 4/4
K: Gmajor
ef|:gabg fgaf|egfe dBAG|EFGE DEGA|BG (3dcB A2 ef|
gabg fgaf|egfe dBAG|EFGE DEGA|1 BGAF G2ef:|2 BGAF G2GA||
B2eB dBeB|B2eB dBGA|B2eB dBef|gabg aged|
B2eB dBeB|B2eB dBef|gage dBGA|1 BGAF G2GA:|2 BGAF G2||

